X: 28200
T: Mrs. Carroll's
R: strathspey
M: 4/4
K: Amajor
A>B|:c<e c>B A2 A>B|c<e (3cBA F2 A>B|c<e c>e f<a e>a|f<a e>c B3 b|
a>g f>e a2 c'>b|a>g f>e a3 e|d>c B>A c<e c>B|A>F E>C B,4:|
A,2 ~A,2 C2 C>B,|A,>B, C>E A2 (3ABc|B2 (3Bce c2 (3cBA|E<A E>C B,4|
A,2 ~A,2 C2 C>B,|A,>B, C>E A2 A>B|c>B (3cBA c<e c>B|A>F E>C B,4:|

